svg/Outline/enter.svg

<svg viewBox="0 0 24 24" xmlns="http://www.w3.org/2000/svg" width="24" height="24"><path d="M8.8 3.37c1.86 0 2.79 0 3.52.3a4 4 0 0 1 2.17 2.17c.25.6.3 1.5.3 2.86 0 .5-.4.9-.9.9a.9.9 0 0 1-.9-.9c0-.58 0-1.08-.03-1.4a3 3 0 0 0-.1-.67l-.03-.1a2.2 2.2 0 0 0-1-1.1l-.2-.1c-.1-.04-.3-.1-.77-.13s-1.11-.03-2.07-.03-1.58 0-2.06.03q-.5.04-.68.1l-.1.03q-.72.31-1.1 1l-.09.2c-.04.1-.1.3-.13.77s-.04 1.11-.04 2.07v5.26c0 .96 0 1.59.04 2.07.03.47.09.66.13.78l.1.2c.23.44.62.8 1.1.99l.1.03q.16.06.67.1c.48.03 1.1.03 2.06.03s1.59 0 2.07-.03.66-.09.78-.13l.2-.1c.44-.24.8-.62.99-1.1l.03-.1q.06-.16.1-.67c.02-.32.03-.82.03-1.4a.9.9 0 1 1 1.8 0v.57a6 6 0 0 1-.3 2.3l-.08.18a4 4 0 0 1-2.09 1.98l-.14.05c-.71.25-1.64.25-3.39.25-1.74 0-2.67 0-3.39-.25l-.14-.05a4 4 0 0 1-2.08-1.98l-.08-.19a6 6 0 0 1-.3-2.3V9.38c0-1.75 0-2.68.24-3.4l.06-.13a4 4 0 0 1 1.98-2.09l.18-.08c.74-.3 1.67-.3 3.53-.3"/><path d="M18.18 8.07a.9.9 0 0 1 1.2-.07l.07.07 3.3 3.3a.9.9 0 0 1 0 1.27l-3.3 3.3a.9.9 0 0 1-1.27-1.28l1.76-1.76H9.34a.9.9 0 0 1 0-1.8h10.6l-1.76-1.76-.06-.07a.9.9 0 0 1 .06-1.2"/></svg>

<svg viewBox="0 0 24 24" xmlns="http://www.w3.org/2000/svg" width="24" height="24"><path d="M8.8 3.37c1.86 0 2.79 0 3.52.3a4 4 0 0 1 2.17 2.17c.25.6.3 1.5.3 2.86 0 .5-.4.9-.9.9a.9.9 0 0 1-.9-.9c0-.58 0-1.08-.03-1.4a3 3 0 0 0-.1-.67l-.03-.1a2.2 2.2 0 0 0-1-1.1l-.2-.1c-.1-.04-.3-.1-.77-.13s-1.11-.03-2.07-.03-1.58 0-2.06.03q-.5.04-.68.1l-.1.03q-.72.31-1.1 1l-.09.2c-.04.1-.1.3-.13.77s-.04 1.11-.04 2.07v5.26c0 .96 0 1.59.04 2.07.03.47.09.66.13.78l.1.2c.23.44.62.8 1.1.99l.1.03q.16.06.67.1c.48.03 1.1.03 2.06.03s1.59 0 2.07-.03.66-.09.78-.13l.2-.1c.44-.24.8-.62.99-1.1l.03-.1q.06-.16.1-.67c.02-.32.03-.82.03-1.4a.9.9 0 1 1 1.8 0v.57a6 6 0 0 1-.3 2.3l-.08.18a4 4 0 0 1-2.09 1.98l-.14.05c-.71.25-1.64.25-3.39.25-1.74 0-2.67 0-3.39-.25l-.14-.05a4 4 0 0 1-2.08-1.98l-.08-.19a6 6 0 0 1-.3-2.3V9.38c0-1.75 0-2.68.24-3.4l.06-.13a4 4 0 0 1 1.98-2.09l.18-.08c.74-.3 1.67-.3 3.53-.3"/><path d="M18.18 8.07A.9 .9 0 0 1 19.38 8L22.75 11.37A.9 .9 0 0 1 22.75 12.64L19.45 15.94A.9 .9 0 0 1 18.18 14.66L19.94 12.9L9.34 12.9A.9 .9 0 0 1 9.34 11.1L19.94 11.1L18.12 9.27A.9 .9 0 0 1 18.18 8.07"/></svg>
